X:1
T:Title
%%score ( 1 2 ) ( 3 4 )
L:1/8
Q:1/4=80
M:6/8
K:G
V:1 treble nm="Strings 1, Treble"
V:2 treble 
V:3 bass nm="Strings 1, Bass"
V:4 bass 
V:1
 z3 z2 D | [DG]>[DG][DG] [DG]>[DF][DG] | [GB]>[GB][FA] G2 [GB] | [GB]>[DA][DG] D>[DG][GB] | %4
w: 1.~Long~|scat tered~ thy~ chil dren,~ O~|Zi on,~ have~ been,~ But~|now~ they~ are~ gath er ing~|
 [FA]3- [FA]2 D | [DG]>[DG][DG] [GB]>[GA][GB] | [Gd]>[Ge][Gd] [GB]2 D | %7
w: home:~ * The~|Spir it~ is~ call ing,~ they~|glad ly~ o bey,~ With~|
 [DG]>[DG][DG] [DB]>[CA][CA] | [B,G]3- [B,G]2 [GB] | [Gd]>[Gd][Gd] [Ge]>[Gd][GB] | G6 | %11
w: songs~ of~ re joic ing~ they~|come.~ * *|||
 [GB]>[DA][DG] D>[DG][GB] | [FA]3- [FA]2 D | [DG]>[DG][DG] [DG]>[DA][GB] | %14
w: |||
 [Gd]>[Gd][Gd] [Gd]>[DB][B,D] | [DG]>[DG][DG] [GB]>[DA][DA] | [DG]6 |] %17
w: |||
V:2
 x6 | x6 | x6 | x6 | x6 | x6 | x6 | x6 | x6 | x6 | D>DE D2 [GB] | x6 | x6 | x6 | x6 | x6 | x6 |] %17
V:3
 z3 z2 [G,B,] | [G,B,]>[G,B,][G,B,] [G,B,]>[G,A,][G,B,] | [D,D]>[D,D][D,C] [G,B,]2 [G,D] | %3
 [G,D]>[G,C][G,B,] [G,B,]>[G,B,][G,D] | [D,D]3- [D,D]2 [G,B,] | %5
 [G,B,]>[G,B,][G,B,] [G,D]>[G,C][G,D] | [G,B,]>[G,C][G,B,] [G,D]2 [G,B,] | %7
 [B,,G,]>[B,,G,][B,,G,] [D,G,]>[D,F,][D,F,] | [G,,G,]3- [G,,G,]2 G, | %9
 [G,B,]>[G,B,][G,B,] [G,C]>[G,B,][G,D] | B,>B,C B,2 [G,D] | [G,D]>[G,C][G,B,] [G,B,]>[G,B,][G,D] | %12
 [D,D]>[D,D][D,D] [D,D]2 [G,B,] | [G,B,]>[G,B,][G,B,] [G,B,]>[G,C][G,D] | %14
 [G,B,]>[G,B,][G,B,] [G,B,]>G,G, | [B,,G,]>[B,,G,][B,,G,] [D,G,]>[D,C][D,C] | [G,,B,]6 |] %17
V:4
 x6 | x6 | x6 | x6 | x6 | x6 | x6 | x6 | x6 | x6 | G,6 | x6 | x6 | x6 | x6 | x6 | x6 |] %17

